X:28
T:Hammocks Go Anywhere
R:reel
C: 1978, 2010 L.E. McCullough 
M:4/4
L:1/8
K:Edor
|:efed BAFE|F~A3 B~A3|efed BAFA|BAFD ~E3d|
efed BAFA|BAFE F~A3|d~f3 ~a3b|afed ~e3d:|
|:~e3f edBA|Bdef afed|~e3f edef|afba f~e3|
defe dBAF|E~F3 ABde|f~a3 ~f3e|afed ~e3d:|
<end>
<start>
